!!!COM: des Prez, Josquin
!!!CDT: ~1450-1521/08/27
!!!OTL@@LAT: Memor esto verbi tui
!!!OTL2@@LAT: Portio mea
!!!AGN: Motet
!!!SCT: NJE 17.14
!!!SCA: New Josquin Edition 17.14
!!!voices: 4
**kern	**text	**kern	**text	**kern	**text	**kern	**text
*staff4	*	*staff3	*	*staff2	*	*staff1	*
*Ivox	*	*Ivox	*	*Ivox	*	*Ivox	*
*I"Bassus	*	*I"Tenor	*	*I"Altus	*	*I"Superius	*
*I'B	*	*I'T	*	*I'A	*	*I'S	*
*>[A,B]	*	*>[A,B]	*	*>[A,B]	*	*>[A,B]	*
*>Section1[A]	*	*>Section1[A]	*	*>Section1[A]	*	*>Section1[A]	*
*>Section2[B]	*	*>Section2[B]	*	*>Section2[B]	*	*>Section2[B]	*
*clefF4	*	*clefGv2	*	*clefG2	*	*clefG2	*
*k[]	*	*k[]	*	*k[]	*	*k[]	*
*>A	*	*>A	*	*>A	*	*>A	*
*M2/1	*	*M2/1	*	*M2/1	*	*M2/1	*
*met(C|)	*	*met(C|)	*	*met(C|)	*	*met(C|)	*
=1-	=1-	=1-	=1-	=1-	=1-	=1-	=1-
1r	.	1.F	Me-	0r	.	0r	.
[1F	Me-	.	.	.	.	.	.
.	.	2G/	-mor	.	.	.	.
=2	=2	=2	=2	=2	=2	=2	=2
2F\]	.	1A	es-	0r	.	0r	.
2G\	-mor	.	.	.	.	.	.
1A	es-	1D	-to	.	.	.	.
=3	=3	=3	=3	=3	=3	=3	=3
1D	-to	1.F	ver-	0r	.	0r	.
[1F	ver-	.	.	.	.	.	.
.	.	2G/	-bi	.	.	.	.
=4	=4	=4	=4	=4	=4	=4	=4
2F\]	.	1A	tu-	0r	.	0r	.
2G\	-bi	.	.	.	.	.	.
1A	tu-	1D	-i	.	.	.	.
=5	=5	=5	=5	=5	=5	=5	=5
1D	-i	1.A	ser-	0r	.	0r	.
[1A	ser-	.	.	.	.	.	.
.	.	2B\	-vo	.	.	.	.
=6	=6	=6	=6	=6	=6	=6	=6
2A\]	.	1c	tu-	0r	.	0r	.
2B\	-vo	.	.	.	.	.	.
1c	tu-	1F	-o,	.	.	.	.
=7	=7	=7	=7	=7	=7	=7	=7
1F	-o,	1.A	in	0r	.	0r	.
[1A	in	.	.	.	.	.	.
.	.	2B\	quo	.	.	.	.
=8	=8	=8	=8	=8	=8	=8	=8
2A\]	.	1c	mi-	0r	.	0r	.
2B\	quo	.	.	.	.	.	.
1c	mi-	1F	-hi	.	.	.	.
=9	=9	=9	=9	=9	=9	=9	=9
2F\	-hi	2.c\	spem	0r	.	0r	.
2.c\	spem	.	.	.	.	.	.
.	.	4d\	.	.	.	.	.
.	.	2e\	de-	.	.	.	.
4B\	.	.	.	.	.	.	.
4A\	.	[2f\	-di-	.	.	.	.
4G\	.	.	.	.	.	.	.
=10	=10	=10	=10	=10	=10	=10	=10
2F\	.	4f\]	.	0r	.	0r	.
.	.	4e\	.	.	.	.	.
2G\	de-	2.d\	.	.	.	.	.
1E	-di-	.	.	.	.	.	.
.	.	4c#i\	.	.	.	.	.
.	.	4c#i\	.	.	.	.	.
.	.	4B\	.	.	.	.	.
=11	=11	=11	=11	=11	=11	=11	=11
[0D	-sti.	[0d	-sti.	1r	.	1.f	Me-
.	.	.	.	[1f	Me-	.	.
.	.	.	.	.	.	2g/	-mor
=12	=12	=12	=12	=12	=12	=12	=12
0D_	.	0d_	.	2f/]	.	1a	es-
.	.	.	.	2g/	-mor	.	.
.	.	.	.	1a	es-	1d	-to
=13	=13	=13	=13	=13	=13	=13	=13
0D]	.	0d]	.	1d	-to	1.f	ver-
.	.	.	.	[1f	ver-	.	.
.	.	.	.	.	.	2g/	-bi
=14	=14	=14	=14	=14	=14	=14	=14
0r	.	0r	.	2f/]	.	1a	tu-
.	.	.	.	2g/	-bi	.	.
.	.	.	.	1a	tu-	1d	-i
=15	=15	=15	=15	=15	=15	=15	=15
0r	.	0r	.	1d	-i	1.a	ser-
.	.	.	.	[1a	ser-	.	.
.	.	.	.	.	.	2b\	-vo
=16	=16	=16	=16	=16	=16	=16	=16
0r	.	0r	.	2a/]	.	1cc	tu-
.	.	.	.	2b\	-vo	.	.
.	.	.	.	1cc	tu-	1f	-o,
=17	=17	=17	=17	=17	=17	=17	=17
0r	.	0r	.	1f	-o,	1.a	in
.	.	.	.	[1a	in	.	.
.	.	.	.	.	.	2b\	quo
=18	=18	=18	=18	=18	=18	=18	=18
0r	.	0r	.	2a/]	.	1cc	mi-
.	.	.	.	2b\	quo	.	.
.	.	.	.	1cc	mi-	1f	-hi
=19	=19	=19	=19	=19	=19	=19	=19
0r	.	0r	.	2f/	-hi	2.cc\	spem
.	.	.	.	2.cc\	spem	.	.
.	.	.	.	.	.	4dd\	.
.	.	.	.	.	.	2ee\	de-
.	.	.	.	4b\	.	.	.
.	.	.	.	4a/	.	[2ff\	-di-
.	.	.	.	4g/	.	.	.
=20	=20	=20	=20	=20	=20	=20	=20
0r	.	0r	.	2f/	.	4ff\]	.
.	.	.	.	.	.	4ee\	.
.	.	.	.	2g/	de-	2.dd\	.
.	.	.	.	1e	-di-	.	.
.	.	.	.	.	.	4cc#i\	.
.	.	.	.	.	.	4cc#i\	.
.	.	.	.	.	.	4b\	.
=21	=21	=21	=21	=21	=21	=21	=21
0r	.	0r	.	[0d	-sti.	[0dd	-sti.
=22	=22	=22	=22	=22	=22	=22	=22
0D	Hec	1r	.	0d]	.	0dd]	.
.	.	[1A	Hec	.	.	.	.
=23	=23	=23	=23	=23	=23	=23	=23
1D	me	1A]	.	0r	.	0r	.
[1F	con-	1A	me	.	.	.	.
=24	=24	=24	=24	=24	=24	=24	=24
2F\]	.	1.c	con-	0r	.	0r	.
2F\	-so-	.	.	.	.	.	.
2F\	-la-	.	.	.	.	.	.
2F\	-ta	2c\	-so-	.	.	.	.
=25	=25	=25	=25	=25	=25	=25	=25
2E\	est	2c\	-la-	0r	.	0r	.
2C/	in	2c\	-ta	.	.	.	.
2D\	hu-	2B\	est	.	.	.	.
2E\	-mi-	2G/	in	.	.	.	.
=26	=26	=26	=26	=26	=26	=26	=26
2F\	-li-	2A/	hu-	0r	.	0r	.
2D\	-ta	2B\	-mi-	.	.	.	.
2C/	-te	1c	-li-	.	.	.	.
[2c\	me-	.	.	.	.	.	.
=27	=27	=27	=27	=27	=27	=27	=27
2c\]	.	2A/	-ta	2r	.	1r	.
2A\	.	2F/	-te	2c/	In	.	.
1G	.	1B-	me-	2d/	hu-	2r	.
.	.	.	.	2e/	-mi-	2g/	In
=28	=28	=28	=28	=28	=28	=28	=28
0F	-a&colon;	0A	-a&colon;	2f/	-li-	2.a/	hu-
.	.	.	.	2d/	-ta-	.	.
.	.	.	.	.	.	4b\	-mi-
.	.	.	.	2c/	-te	2cc\	-li-
.	.	.	.	[2d/	me-	2f/	-ta-
=29	=29	=29	=29	=29	=29	=29	=29
0r	.	1r	.	4d/]	.	1a	-te
.	.	.	.	4c/	.	.	.
.	.	.	.	1f	.	.	.
.	.	1c	qui	.	.	1g	me-
.	.	.	.	2e/	.	.	.
=30	=30	=30	=30	=30	=30	=30	=30
0r	.	1d	a	0f	-a&colon;	1f	-a&colon;
.	.	1d	e-	.	.	1f	qui-
=31	=31	=31	=31	=31	=31	=31	=31
0r	.	2.e\	-lo-	0r	.	1g	-a
.	.	4d\	.	.	.	.	.
.	.	2c\	.	.	.	1g	e-
.	.	2B\	.	.	.	.	.
=32	=32	=32	=32	=32	=32	=32	=32
0r	.	2.A/	.	0r	.	1.a	-lo-
.	.	4G/	.	.	.	.	.
.	.	2F/	.	.	.	.	.
.	.	2E/	-qui	.	.	2g/	.
=33	=33	=33	=33	=33	=33	=33	=33
0r	.	2D/	-um	0r	.	2f/	.
.	.	2C/	.	.	.	2e/	-qui-
.	.	2.G/	tu-	.	.	2d/	-um
.	.	.	.	.	.	[2g/	tu-
.	.	4A/	.	.	.	.	.
=34	=34	=34	=34	=34	=34	=34	=34
1r	.	2B\	.	0r	.	4g/]	.
.	.	.	.	.	.	4f/	.
.	.	1c	.	.	.	2e/	.
1G	vi-	.	.	.	.	1d	.
.	.	2B\	.	.	.	.	.
=35	=35	=35	=35	=35	=35	=35	=35
2.A\	-vi-	0c	-um	0r	.	1c	-um
4G\	.	.	.	.	.	.	.
2F\	.	.	.	.	.	1c	vi-
2E\	-fi-	.	.	.	.	.	.
=36	=36	=36	=36	=36	=36	=36	=36
2.D\	-ca-	0r	.	1r	.	1d	-vi-
4F\	.	.	.	.	.	.	.
1E	.	.	.	1g	vi-	1e	-fi-
=37	=37	=37	=37	=37	=37	=37	=37
2.D\	.	0r	.	2.a/	-vi-	2.f/	-ca-
4E\	.	.	.	4g/	.	4g/	.
2F\	.	.	.	2f/	.	2a/	.
[2G\	.	.	.	2e/	-fi-	[2b\	.
=38	=38	=38	=38	=38	=38	=38	=38
4G\]	.	0r	.	2.d/	-ca-	4b\]	.
4F\	.	.	.	.	.	4a/	.
2D\	.	.	.	.	.	1dd	.
.	.	.	.	4f/	.	.	.
1A	-vit	.	.	1e	-vit	.	.
.	.	.	.	.	.	2cc#i\	-vit
=39	=39	=39	=39	=39	=39	=39	=39
[0D	me.	1r	.	[0d	me.	[0dd	me.
.	.	1A	Su-	.	.	.	.
=40	=40	=40	=40	=40	=40	=40	=40
0D]	.	1B	-per-	0d]	.	0dd_	.
.	.	1A	-bi	.	.	.	.
=41	=41	=41	=41	=41	=41	=41	=41
1r	.	1.d	in-	0r	.	0dd]	.
1D	Su-	.	.	.	.	.	.
.	.	2d\	-i-	.	.	.	.
=42	=42	=42	=42	=42	=42	=42	=42
1E	-per-	1c	-que	0r	.	0r	.
1D	-bi	1f	a-	.	.	.	.
=43	=43	=43	=43	=43	=43	=43	=43
1.G	in-	1e	-ge-	0r	.	0r	.
.	.	1d	-bant	.	.	.	.
2G\	i-	.	.	.	.	.	.
=44	=44	=44	=44	=44	=44	=44	=44
1F	-que	2r	.	0r	.	0r	.
.	.	2.f\	us-	.	.	.	.
1B-	a-	.	.	.	.	.	.
.	.	4e\	.	.	.	.	.
.	.	2d\	.	.	.	.	.
=45	=45	=45	=45	=45	=45	=45	=45
1A	-ge-	2c\	.	0r	.	0r	.
.	.	2A/	-que-	.	.	.	.
1G	-bant	1B-i	-qua-	.	.	.	.
=46	=46	=46	=46	=46	=46	=46	=46
1.F	us-	0A	-que,	0r	.	1r	.
.	.	.	.	.	.	1a	Su-
2F\	-que-	.	.	.	.	.	.
=47	=47	=47	=47	=47	=47	=47	=47
1G	-qua-	2r	.	0r	.	1b	-per-
.	.	2d\	us-	.	.	.	.
1D	-que&colon;	2d\	-que-	.	.	1a	-bi
.	.	[2d\	-qua-	.	.	.	.
=48	=48	=48	=48	=48	=48	=48	=48
0r	.	4d\]	.	1r	.	1.dd	in-
.	.	4c\	.	.	.	.	.
.	.	4B-i\	.	.	.	.	.
.	.	4A/	.	.	.	.	.
.	.	1B-i	.	1d	Su-	.	.
.	.	.	.	.	.	2dd\	-i-
=49	=49	=49	=49	=49	=49	=49	=49
0r	.	1A	-que&colon;	1e	-per-	1cc	-que
.	.	1r	.	1d	-bi	1ff	a-
=50	=50	=50	=50	=50	=50	=50	=50
0r	.	0r	.	1.g	in-	1ee	-ge-
.	.	.	.	.	.	1dd	-bant
.	.	.	.	2g/	-i-	.	.
=51	=51	=51	=51	=51	=51	=51	=51
0r	.	0r	.	1f	-que	2dd\	us-
.	.	.	.	.	.	2dd\	-que-
.	.	.	.	1b-	a-	1dd	-qua-
=52	=52	=52	=52	=52	=52	=52	=52
0r	.	0r	.	1a	-ge-	2cc\	.
.	.	.	.	.	.	2ff\	.
.	.	.	.	1g	-bant	2ee\	.
.	.	.	.	.	.	[2dd\	.
=53	=53	=53	=53	=53	=53	=53	=53
0r	.	0r	.	2g/	us-	4dd\]	.
.	.	.	.	.	.	4cc\	.
.	.	.	.	2g/	-que-	4b-i\	.
.	.	.	.	.	.	4a/	.
.	.	.	.	1g	-qua-	1b-i	.
=54	=54	=54	=54	=54	=54	=54	=54
1r	.	2r	.	0f	-que&colon;	0a	-que&colon;
.	.	2d\	a	.	.	.	.
2r	.	2f\	le-	.	.	.	.
2D\	a	2f\	-ge	.	.	.	.
=55	=55	=55	=55	=55	=55	=55	=55
2F\	le-	1f	au-	0r	.	0r	.
2F\	-ge	.	.	.	.	.	.
1F	au-	2.c\	-tem	.	.	.	.
.	.	4d\	.	.	.	.	.
=56	=56	=56	=56	=56	=56	=56	=56
4C/	-tem	4e\	.	0r	.	0r	.
4D\	.	4f\	.	.	.	.	.
4E\	.	1g	.	.	.	.	.
4F\	.	.	.	.	.	.	.
2G\	.	.	.	.	.	.	.
[2A\	tu-	[2f\	tu-	.	.	.	.
=57	=57	=57	=57	=57	=57	=57	=57
4A\]	.	4f\]	.	0r	.	0r	.
4G\	.	4g\	.	.	.	.	.
2.c\	.	2e\	.	.	.	.	.
.	.	1d	.	.	.	.	.
4B\	.	.	.	.	.	.	.
4B\	.	.	.	.	.	.	.
4A\	.	.	.	.	.	.	.
=58	=58	=58	=58	=58	=58	=58	=58
1c	-a	2c\	-a,	0r	.	1r	.
.	.	4F/	tu-	.	.	.	.
.	.	4G/	.	.	.	.	.
1A	non	4A/	.	.	.	1cc	non
.	.	4B\	.	.	.	.	.
.	.	4c\	.	.	.	.	.
.	.	4d\	.	.	.	.	.
=59	=59	=59	=59	=59	=59	=59	=59
2G\	de-	2e\	.	0r	.	2b\	de-
2F\	-cli-	1f	.	.	.	2a/	-cli-
1G	-na-	.	.	.	.	1b	-na-
.	.	2e\	.	.	.	.	.
=60	=60	=60	=60	=60	=60	=60	=60
0F	-vi,	2f\	-a,	1r	.	0a	-vi,
.	.	4F/	tu-	.	.	.	.
.	.	4G/	.	.	.	.	.
.	.	4A/	.	1a	non	.	.
.	.	4B\	.	.	.	.	.
.	.	4c\	.	.	.	.	.
.	.	4d\	.	.	.	.	.
=61	=61	=61	=61	=61	=61	=61	=61
1r	.	2e\	.	2g/	de-	0r	.
.	.	1f	.	2f/	-cli-	.	.
1c	au-	.	.	1g	-na-	.	.
.	.	2e\	.	.	.	.	.
=62	=62	=62	=62	=62	=62	=62	=62
2d\	-tem	0f	-a	0f	-vi,	1r	.
4D\	tu-	.	.	.	.	.	.
4E\	.	.	.	.	.	.	.
4F\	.	.	.	.	.	1f	non
4G\	.	.	.	.	.	.	.
4A\	.	.	.	.	.	.	.
4B\	.	.	.	.	.	.	.
=63	=63	=63	=63	=63	=63	=63	=63
2c\	.	0r	.	0r	.	2e/	de-
2.d\	.	.	.	.	.	2d/	-cli-
.	.	.	.	.	.	1e	-na-
4c#i\	.	.	.	.	.	.	.
4c#i\	.	.	.	.	.	.	.
4B\	.	.	.	.	.	.	.
=64	=64	=64	=64	=64	=64	=64	=64
2d\	-a	1r	.	1r	.	4d/	.
.	.	.	.	.	.	4e/	.
2D\	non	.	.	.	.	4f/	.
.	.	.	.	.	.	4g/	.
2.F\	de-	1f	non	2r	.	2.a/	.
.	.	.	.	2a/	non	.	.
4G\	.	.	.	.	.	4b\	.
=65	=65	=65	=65	=65	=65	=65	=65
2A\	.	2e\	de-	2a/	de-	2cc\	.
2B-i\	-cli-	2d\	-cli-	2g/	-cli-	1dd	.
1A	-na-	1e	-na-	1a	-na-	.	.
.	.	.	.	.	.	2cc#i\	.
=66	=66	=66	=66	=66	=66	=66	=66
1D	-vi,	1d	-vi,	1f	-vi,	1dd	-vi,
2r	.	2r	.	2r	.	2r	.
2D\	non	2D/	non	2f/	non	2dd\	non
=67	=67	=67	=67	=67	=67	=67	=67
2D\	de-	2F/	de-	2f/	de-	2dd\	de-
2D\	-cli-	2D/	-cli-	2f/	-cli-	2dd\	-cli-
1D	-na-	2.F/	-na-	1f	-na-	1dd	-na-
.	.	4G/	.	.	.	.	.
=68	=68	=68	=68	=68	=68	=68	=68
[0AA	-vi.	1A	-vi.	[0e	-vi.	[0cc	-vi.
.	.	2r	.	.	.	.	.
.	.	[2A/	de-	.	.	.	.
=69	=69	=69	=69	=69	=69	=69	=69
0AA]	.	4A/]	.	0e]	.	0cc]	.
.	.	4G/	.	.	.	.	.
.	.	4A/	-cli-	.	.	.	.
.	.	4B\	.	.	.	.	.
.	.	2c\	-na-	.	.	.	.
.	.	[2A/	.	.	.	.	.
=70	=70	=70	=70	=70	=70	=70	=70
1r	.	2A/]	.	0r	.	0r	.
.	.	4G/	.	.	.	.	.
.	.	4F/	.	.	.	.	.
1C	Me-	1E	-vi.	.	.	.	.
=71	=71	=71	=71	=71	=71	=71	=71
1D	-mor	1r	.	0r	.	0r	.
1E	fu-	1G	Me-	.	.	.	.
=72	=72	=72	=72	=72	=72	=72	=72
1F	-i	1A	-mor	0r	.	0r	.
2r	.	1B	fu-	.	.	.	.
2D\	ju-	.	.	.	.	.	.
=73	=73	=73	=73	=73	=73	=73	=73
2E\	-di-	2c\	-i	0r	.	0r	.
2F\	-ci-	2A/	ju-	.	.	.	.
1G	-o-	2B\	-di-	.	.	.	.
.	.	2c\	-ci-	.	.	.	.
=74	=74	=74	=74	=74	=74	=74	=74
2F\	-rum	1d	-o-	0r	.	0r	.
2D\	tu-	.	.	.	.	.	.
1F	-o-	2c\	-rum	.	.	.	.
.	.	2A/	tu-	.	.	.	.
=75	=75	=75	=75	=75	=75	=75	=75
2E\	-rum	1c	-o-	0r	.	0r	.
2C/	a	.	.	.	.	.	.
2D\	se-	2B\	-rum	.	.	.	.
2E\	-cu-	2G/	a	.	.	.	.
=76	=76	=76	=76	=76	=76	=76	=76
1F	-lo	2A/	se-	0r	.	0r	.
.	.	2B\	-cu-	.	.	.	.
[1E	do-	1c	-lo	.	.	.	.
=77	=77	=77	=77	=77	=77	=77	=77
2E\]	.	1.B	do-	0r	.	0r	.
2E\	-mi-	.	.	.	.	.	.
2E\	-ne,	.	.	.	.	.	.
[2G\	do-	2B\	-mi-	.	.	.	.
=78	=78	=78	=78	=78	=78	=78	=78
2G\]	.	1B	-ne&colon;	0r	.	0r	.
4F\	.	.	.	.	.	.	.
4E\	.	.	.	.	.	.	.
2F\	.	2r	.	.	.	.	.
2G\	-mi-	2d\	et	.	.	.	.
=79	=79	=79	=79	=79	=79	=79	=79
1E	-ne&colon;	2.e\	con-	0r	.	0r	.
.	.	4d\	-so-	.	.	.	.
2r	.	2c\	-la-	.	.	.	.
2G\	et	2B\	-tus	.	.	.	.
=80	=80	=80	=80	=80	=80	=80	=80
2.A\	con-	1A	-sum.	1r	.	1r	.
4G\	-so-	.	.	.	.	.	.
2F\	-la-	1r	.	2r	.	2r	.
2E\	-tus	.	.	2e/	Et	2g/	Et
=81	=81	=81	=81	=81	=81	=81	=81
1D	-sum.	0r	.	2.f/	con-	2.a/	con-
.	.	.	.	4e/	-so-	4g/	-so-
1r	.	.	.	2d/	-la-	2f/	-la-
.	.	.	.	2c#i/	-tus	2e/	-tus
=82	=82	=82	=82	=82	=82	=82	=82
1r	.	0r	.	0d	sum.	0d	sum.
2r	.	.	.	.	.	.	.
2D\	De-	.	.	.	.	.	.
=83	=83	=83	=83	=83	=83	=83	=83
2D\	-fec-	2r	.	0r	.	0r	.
2D\	-ti-	2A/	De-	.	.	.	.
2D\	-o	2A/	-fec-	.	.	.	.
[2F\	te-	2A/	-ti-	.	.	.	.
=84	=84	=84	=84	=84	=84	=84	=84
2F\]	.	2A/	-o	0r	.	0r	.
2.E\	-nu-	1c	te-	.	.	.	.
4C/	.	.	.	.	.	.	.
4D\	.	2B\	-nu-	.	.	.	.
4E\	.	.	.	.	.	.	.
=85	=85	=85	=85	=85	=85	=85	=85
4F\	.	1A	-it	0r	.	0r	.
4G\	.	.	.	.	.	.	.
1A	.	.	.	.	.	.	.
.	.	1B	me,	.	.	.	.
2G#i\	-it	.	.	.	.	.	.
=86	=86	=86	=86	=86	=86	=86	=86
0A	me,	2r	.	0r	.	0r	.
.	.	2A/	pro	.	.	.	.
.	.	2A/	pec-	.	.	.	.
.	.	2F/	-ca-	.	.	.	.
=87	=87	=87	=87	=87	=87	=87	=87
1r	.	2G/	-to-	0r	.	0r	.
.	.	2A/	-ri-	.	.	.	.
2r	.	1D	-bus	.	.	.	.
2A\	pro	.	.	.	.	.	.
=88	=88	=88	=88	=88	=88	=88	=88
2A\	pec-	2r	.	0r	.	0r	.
2F\	-ca-	2A/	de-	.	.	.	.
2G\	-to-	2B\	-re-	.	.	.	.
2A\	-ri-	2c\	-lin-	.	.	.	.
=89	=89	=89	=89	=89	=89	=89	=89
1D	-bus	2d\	-quen-	0r	.	0r	.
.	.	2B\	-ti-	.	.	.	.
2r	.	1A	-bus,	.	.	.	.
2D\	de-	.	.	.	.	.	.
=90	=90	=90	=90	=90	=90	=90	=90
2E\	-re-	2r	.	0r	.	0r	.
2F\	-lin-	2A/	de-	.	.	.	.
2G\	-quen-	2B\	-re-	.	.	.	.
2E\	-ti-	2c\	-lin-	.	.	.	.
=91	=91	=91	=91	=91	=91	=91	=91
1D	-bus	2d\	-quen-	2r	.	1r	.
.	.	2B\	-ti-	2d/	De-	.	.
1r	.	1A	-bus	2e/	-re-	2r	.
.	.	.	.	2f/	-lin-	2a/	De-
=92	=92	=92	=92	=92	=92	=92	=92
0r	.	0r	.	2g/	-quen-	2b\	-re-
.	.	.	.	2e/	-ti-	2cc\	-lin-
.	.	.	.	1d	-bus	2dd\	-quen-
.	.	.	.	.	.	2b\	-ti-
=93	=93	=93	=93	=93	=93	=93	=93
0r	.	0r	.	1f	le-	1a	-bus
.	.	.	.	2e/	-gem	2g/	le-
.	.	.	.	[2d/	tu-	2f/	-gem
=94	=94	=94	=94	=94	=94	=94	=94
0r	.	0r	.	4d/]	.	1e	tu-
.	.	.	.	4c#i/	.	.	.
.	.	.	.	4c#i/	.	.	.
.	.	.	.	4B/	.	.	.
.	.	.	.	2d/	-am,	2d/	-am,
.	.	.	.	2f/	le-	2a/	le-
=95	=95	=95	=95	=95	=95	=95	=95
0r	.	0r	.	2e/	-gem	2g/	.
.	.	.	.	2.d/	tu-	2f/	-gem
.	.	.	.	.	.	1e	tu-
.	.	.	.	4c#i/	.	.	.
.	.	.	.	4c#i/	.	.	.
.	.	.	.	4B/	.	.	.
=96	=96	=96	=96	=96	=96	=96	=96
1D	Can-	0r	.	1d	.	0d	-am.
2D\	-ta-	.	.	[1f	.	.	.
2D\	-bi-	.	.	.	.	.	.
=97	=97	=97	=97	=97	=97	=97	=97
1D	-les	0r	.	2f/]	.	0r	.
.	.	.	.	4e/	.	.	.
.	.	.	.	4d/	.	.	.
1C	mi-	.	.	1e	-am.	.	.
=98	=98	=98	=98	=98	=98	=98	=98
1D	-hi	1A	Can-	0r	.	0r	.
[1F	e-	2A/	-ta-	.	.	.	.
.	.	2A/	-bi-	.	.	.	.
=99	=99	=99	=99	=99	=99	=99	=99
2F\]	.	1A	-les	0r	.	0r	.
4E\	.	.	.	.	.	.	.
4D\	.	.	.	.	.	.	.
1E	.	1G	mi-	.	.	.	.
=100	=100	=100	=100	=100	=100	=100	=100
0AA	-rant	1A	-hi	1e	Can-	1a	Can-
.	.	[1c	e-	2e/	-ta-	2a/	-ta-
.	.	.	.	2e/	-bi-	2a/	-bi-
=101	=101	=101	=101	=101	=101	=101	=101
0r	.	2c\]	.	1e	-les	1a	-les
.	.	4B\	.	.	.	.	.
.	.	4A/	.	.	.	.	.
.	.	1B	.	1d	mi-	1g	mi-
=102	=102	=102	=102	=102	=102	=102	=102
0r	.	0A	-rant	2.e/	-hi	1a	-hi
.	.	.	.	4d/	.	.	.
.	.	.	.	2e/	.	[1cc	e-
.	.	.	.	[2f/	e-	.	.
=103	=103	=103	=103	=103	=103	=103	=103
0r	.	0r	.	4f/]	.	2cc\]	.
.	.	.	.	4e/	.	.	.
.	.	.	.	1a	.	4b\	.
.	.	.	.	.	.	4a/	.
.	.	.	.	.	.	1b	.
.	.	.	.	2g/	.	.	.
=104	=104	=104	=104	=104	=104	=104	=104
1D	jus-	0r	.	2a/	.	0a	-rant
.	.	.	.	1f	.	.	.
2D\	-ti-	.	.	.	.	.	.
2D\	-fi-	.	.	4e/	.	.	.
.	.	.	.	4d/	.	.	.
=105	=105	=105	=105	=105	=105	=105	=105
1D	-ca-	0r	.	1f	-rant	0r	.
1C	-ti-	.	.	1e	.	.	.
=106	=106	=106	=106	=106	=106	=106	=106
1D	-o-	1A	jus-	0r	.	0r	.
[1F	-nes	2A/	-ti-	.	.	.	.
.	.	2A/	-fi-	.	.	.	.
=107	=107	=107	=107	=107	=107	=107	=107
2F\]	.	1A	-ca-	0r	.	0r	.
4E\	.	.	.	.	.	.	.
4D\	.	.	.	.	.	.	.
1E	tu-	1G	-ti-	.	.	.	.
=108	=108	=108	=108	=108	=108	=108	=108
0AA	-e,	1A	-o-	1e	jus-	1a	jus-
.	.	[1c	-nes	2e/	-ti-	2a/	-ti-
.	.	.	.	2e/	-fi-	2a/	-fi-
=109	=109	=109	=109	=109	=109	=109	=109
0r	.	2c\]	.	1e	-ca-	1a	-ca-
.	.	4B\	.	.	.	.	.
.	.	4A/	.	.	.	.	.
.	.	1B	tu-	1d	-ti-	1g	-ti-
=110	=110	=110	=110	=110	=110	=110	=110
0r	.	0A	-e,	2.e/	-o-	1a	-o-
.	.	.	.	4d/	.	.	.
.	.	.	.	2e/	-nes	[1cc	-nes
.	.	.	.	[2f/	tu-	.	.
=111	=111	=111	=111	=111	=111	=111	=111
0r	.	1r	.	4f/]	.	2cc\]	.
.	.	.	.	4e/	.	.	.
.	.	.	.	1a	.	4b\	.
.	.	.	.	.	.	4a/	.
.	.	1e	in	.	.	1b	tu-
.	.	.	.	2g#i/	.	.	.
=112	=112	=112	=112	=112	=112	=112	=112
1r	.	1f	lo-	0a	-e,	0a	-e,
1A	in	1e	-co	.	.	.	.
=113	=113	=113	=113	=113	=113	=113	=113
1B-i	lo-	2r	.	0r	.	0r	.
.	.	2d\	pe-	.	.	.	.
1A	.	2c\	-re-	.	.	.	.
.	.	2c\	-gri-	.	.	.	.
=114	=114	=114	=114	=114	=114	=114	=114
2r	.	1f	-na-	0r	.	0r	.
2D\	pe-	.	.	.	.	.	.
2C/	-re-	1e	-ti-	.	.	.	.
2C/	-gri-	.	.	.	.	.	.
=115	=115	=115	=115	=115	=115	=115	=115
1.F	-na-	2.d\	-o-	0r	.	0r	.
.	.	4c\	.	.	.	.	.
.	.	2A/	.	.	.	.	.
2E\	-ti-	2c\	-nis	.	.	.	.
=116	=116	=116	=116	=116	=116	=116	=116
2D\	-o-	2B\	me-	0r	.	0r	.
2C/	-nis	1A	.	.	.	.	.
1BB	me-	.	.	.	.	.	.
.	.	2G#i/	.	.	.	.	.
=117	=117	=117	=117	=117	=117	=117	=117
[0AA	-e.	[0A	-e.	1r	.	0r	.
.	.	.	.	1e	in	.	.
=118	=118	=118	=118	=118	=118	=118	=118
0AA]	.	0A]	.	1f	lo-	1r	.
.	.	.	.	1e	-co	1e	in
=119	=119	=119	=119	=119	=119	=119	=119
0r	.	0r	.	2r	.	1f	lo-
.	.	.	.	2a/	-pe-	.	.
.	.	.	.	2g/	-re-	1e	-co
.	.	.	.	2g/	gri-	.	.
=120	=120	=120	=120	=120	=120	=120	=120
0r	.	0r	.	1cc	-na-	2r	.
.	.	.	.	.	.	2a/	-pe-
.	.	.	.	1b	-ti-	2g/	-re-
.	.	.	.	.	.	2g/	gri-
=121	=121	=121	=121	=121	=121	=121	=121
0r	.	0r	.	2.a/	-o-	1.cc	-na-
.	.	.	.	4g/	.	.	.
.	.	.	.	2e/	.	.	.
.	.	.	.	2g/	.	2b\	-ti-
=122	=122	=122	=122	=122	=122	=122	=122
0r	.	1r	.	2f/	-nis	2a/	-o-
.	.	.	.	1e	me-	2g/	-nis
.	.	1D	Me-	.	.	1f	me-
.	.	.	.	2d/	.	.	.
=123	=123	=123	=123	=123	=123	=123	=123
1r	.	1A	-mor	2e/	.	1.e	.
.	.	.	.	1c	.	.	.
1AA	Me-	1A	fu-	.	.	.	.
.	.	.	.	4B/	.	2f/	.
.	.	.	.	4A/	.	.	.
=124	=124	=124	=124	=124	=124	=124	=124
1E	-mor	0G	-i	0B	-e.	0g	-e.
1E	fu-	.	.	.	.	.	.
=125	=125	=125	=125	=125	=125	=125	=125
0D	-i	0d	noc-	0r	.	0r	.
=126	=126	=126	=126	=126	=126	=126	=126
0A	noc-	1c	-te	0r	.	0r	.
.	.	2r	.	.	.	.	.
.	.	2c\	no-	.	.	.	.
=127	=127	=127	=127	=127	=127	=127	=127
1G	-te	2B\	-mi-	0r	.	1r	.
.	.	2G/	-nis	.	.	.	.
2r	.	1B	tu-	.	.	1d	Me-
2G\	no-	.	.	.	.	.	.
=128	=128	=128	=128	=128	=128	=128	=128
2F\	-mi-	2.A/	.	1r	.	1a	-mor
2D\	-nis	.	.	.	.	.	.
.	.	4G/	.	.	.	.	.
1F	tu-	4A/	.	1A	Me-	1a	fu-
.	.	4B\	.	.	.	.	.
.	.	[2c\	.	.	.	.	.
=129	=129	=129	=129	=129	=129	=129	=129
1.E	-i	2c\]	.	1e	-mor	0g	-i
.	.	4B\	.	.	.	.	.
.	.	4A/	.	.	.	.	.
.	.	2.G/	.	1e	fu-	.	.
4D\	.	.	.	.	.	.	.
4C/	.	4F/	.	.	.	.	.
=130	=130	=130	=130	=130	=130	=130	=130
2.BB/	do-	2G/	.	0d	-i	0dd	noc-
.	.	2A/	-i	.	.	.	.
4AA/	.	.	.	.	.	.	.
1BB	-mi-	2.D/	do-	.	.	.	.
.	.	4E/	.	.	.	.	.
=131	=131	=131	=131	=131	=131	=131	=131
0AA	-ne&colon;	2F/	.	0a	noc-	1cc	-te
.	.	2E/	.	.	.	.	.
.	.	1A	-mi-	.	.	2r	.
.	.	.	.	.	.	2cc\	no-
=132	=132	=132	=132	=132	=132	=132	=132
0r	.	0E	-ne&colon;	1g	-te	2b\	-mi-
.	.	.	.	.	.	2g/	-nis
.	.	.	.	2r	.	1b	tu-
.	.	.	.	2g/	no-	.	.
=133	=133	=133	=133	=133	=133	=133	=133
0r	.	0r	.	2f/	-mi-	2.a/	.
.	.	.	.	2d/	-nis	.	.
.	.	.	.	.	.	4g/	.
.	.	.	.	1f	tu-	4a/	.
.	.	.	.	.	.	4b\	.
.	.	.	.	.	.	[2cc\	.
=134	=134	=134	=134	=134	=134	=134	=134
0r	.	0r	.	2.e/	.	2cc\]	.
.	.	.	.	.	.	2b\	.
.	.	.	.	4d/	.	.	.
.	.	.	.	2e/	-i	2g/	-i
.	.	.	.	[2f/	do-	[2a/	do-
=135	=135	=135	=135	=135	=135	=135	=135
0r	.	0r	.	4f/]	.	2a/]	.
.	.	.	.	4e/	.	.	.
.	.	.	.	2.e/	.	2g/	.
.	.	.	.	.	.	1f	-mi-
.	.	.	.	4d/	.	.	.
.	.	.	.	4d/	-mi-	.	.
.	.	.	.	4c/	.	.	.
=136	=136	=136	=136	=136	=136	=136	=136
1r	.	0r	.	0e	-ne&colon;	0e	-ne&colon;
2r	.	.	.	.	.	.	.
2E\	et	.	.	.	.	.	.
=137	=137	=137	=137	=137	=137	=137	=137
2E\	cus-	2r	.	0r	.	0r	.
2E\	-to-	2B\	et	.	.	.	.
1G	-di-	2B\	cus-	.	.	.	.
.	.	2B\	-to-	.	.	.	.
=138	=138	=138	=138	=138	=138	=138	=138
1D	-vi	1d	-di-	0r	.	0r	.
2r	.	1A	-vi	.	.	.	.
[2A\	le-	.	.	.	.	.	.
=139	=139	=139	=139	=139	=139	=139	=139
2A\]	.	2c\	le-	1r	.	0r	.
2G\	-gem	2B\	-gem	.	.	.	.
1A	tu-	1c	tu-	2r	.	.	.
.	.	.	.	2e/	et	.	.
=140	=140	=140	=140	=140	=140	=140	=140
0E	-am.	0B	-am.	2e/	cus-	2r	.
.	.	.	.	2e/	-to-	2b\	et
.	.	.	.	1g	-di-	2b\	cus-
.	.	.	.	.	.	2b\	-to-
=141	=141	=141	=141	=141	=141	=141	=141
0r	.	0r	.	1d	-vi	1dd	-di-
.	.	.	.	1f	le-	1a	-vi
=142	=142	=142	=142	=142	=142	=142	=142
0r	.	0r	.	2.e/	-gem	1cc	le-
.	.	.	.	4d/	.	.	.
.	.	.	.	4e/	.	2.b\	-gem
.	.	.	.	4f/	.	.	.
.	.	.	.	[2g/	tu-	.	.
.	.	.	.	.	.	4a/	.
=143	=143	=143	=143	=143	=143	=143	=143
0r	.	1r	.	4g/]	.	4b\	.
.	.	.	.	4f/	.	4cc\	.
.	.	.	.	2d/	.	2.dd\	tu-
.	.	1A	Hec	1e	.	.	.
.	.	.	.	.	.	4cc#i\	.
.	.	.	.	.	.	4cc#i\	.
.	.	.	.	.	.	4b\	.
=144	=144	=144	=144	=144	=144	=144	=144
0r	.	1B	fac-	0d	-am.	[0dd	-am.
.	.	1G	-ta	.	.	.	.
=145	=145	=145	=145	=145	=145	=145	=145
1r	.	0d	est	2r	.	0dd]	.
.	.	.	.	2d/	Hec	.	.
1D	Hec	.	.	2d/	fac-	.	.
.	.	.	.	2d/	-ta	.	.
=146	=146	=146	=146	=146	=146	=146	=146
1D	fac-	0d	mi-	1f	est	2r	.
.	.	.	.	.	.	2a/	Hec
1D	-ta	.	.	1d	mi-	2a/	fac-
.	.	.	.	.	.	2a/	-ta
=147	=147	=147	=147	=147	=147	=147	=147
0A	est	1c	-hi&colon;	1.e	.	0cc	est
.	.	1r	.	.	.	.	.
.	.	.	.	2f/	.	.	.
=148	=148	=148	=148	=148	=148	=148	=148
1.G	mi-	1d	qui-	2g/	.	0b	mi-
.	.	.	.	2d/	.	.	.
.	.	[1d	-a	1g	.	.	.
2F\	.	.	.	.	.	.	.
=149	=149	=149	=149	=149	=149	=149	=149
[0D	-hi&colon;	2d\]	.	[0f	-hi&colon;	1a	-hi&colon;
.	.	2d\	jus-	.	.	.	.
.	.	2d\	-ti-	.	.	1r	.
.	.	2d\	-fi-	.	.	.	.
=150	=150	=150	=150	=150	=150	=150	=150
0D]	.	2d\	-ca-	0f]	.	1a	qui-
.	.	2d\	-ti-	.	.	.	.
.	.	2d\	-o-	.	.	[1a	-a
.	.	2d\	-nes	.	.	.	.
=151	=151	=151	=151	=151	=151	=151	=151
0r	.	1d	tu-	0r	.	2a/]	.
.	.	.	.	.	.	2a/	jus-
.	.	1c	-as	.	.	2a/	-ti-
.	.	.	.	.	.	2a/	-fi-
=152	=152	=152	=152	=152	=152	=152	=152
0r	.	1d	ex-	0r	.	2a/	-ca-
.	.	.	.	.	.	2a/	-ti-
.	.	2.f\	-qui-	.	.	2a/	-o-
.	.	.	.	.	.	2a/	-nes
.	.	4e\	.	.	.	.	.
=153	=153	=153	=153	=153	=153	=153	=153
0r	.	2d\	.	0r	.	1a	tu-
.	.	2c\	.	.	.	.	.
.	.	1B	-si-	.	.	1g	-as
=154	=154	=154	=154	=154	=154	=154	=154
0r	.	4A/	.	0r	.	1a	ex-
.	.	4B\	.	.	.	.	.
.	.	4c\	.	.	.	.	.
.	.	4d\	.	.	.	.	.
.	.	2e\	.	.	.	2.cc\	-qui-
.	.	[2f\	.	.	.	.	.
.	.	.	.	.	.	4b\	.
=155	=155	=155	=155	=155	=155	=155	=155
0r	.	4f\]	.	0r	.	2a/	.
.	.	4e\	.	.	.	.	.
.	.	1e	.	.	.	2g/	.
.	.	.	.	.	.	1f	-si-
.	.	2d\	.	.	.	.	.
=156	=156	=156	=156	=156	=156	=156	=156
1A	qui-	2e\	-vi	0r	.	0e	-vi
.	.	2A/	jus-	.	.	.	.
[1A	-a	2c\	-ti-	.	.	.	.
.	.	2A/	-fi-	.	.	.	.
=157	=157	=157	=157	=157	=157	=157	=157
2A\]	.	2.c\	-ca-	0r	.	0r	.
2A\	jus-	.	.	.	.	.	.
.	.	4d\	-ti-	.	.	.	.
2A\	-ti-	2e\	-o-	.	.	.	.
2A\	-fi-	2A/	-nes	.	.	.	.
=158	=158	=158	=158	=158	=158	=158	=158
2A\	-ca-	1.c	tu-	1e	qui-	0r	.
2A\	-ti-	.	.	.	.	.	.
2A\	-o-	.	.	[1e	-a	.	.
2A\	-nes	4B\	.	.	.	.	.
.	.	4A/	.	.	.	.	.
=159	=159	=159	=159	=159	=159	=159	=159
1A	tu-	1c	.	2e/]	.	0r	.
.	.	.	.	2e/	jus-	.	.
1G	-as	1B	-as	2e/	-ti-	.	.
.	.	.	.	2e/	-fi-	.	.
=160	=160	=160	=160	=160	=160	=160	=160
1A	ex-	2r	.	2e/	-ca-	0r	.
.	.	2c\	ex-	2e/	-ti-	.	.
2.c\	-qui-	2A/	-qui-	2e/	-o-	.	.
.	.	[2c\	-si-	2e/	-nes	.	.
4B\	.	.	.	.	.	.	.
=161	=161	=161	=161	=161	=161	=161	=161
2A\	.	4c\]	.	1e	tu-	0r	.
.	.	4B\	.	.	.	.	.
2G\	.	1B	.	.	.	.	.
1F	-si-	.	.	1d	-as	.	.
.	.	2A/	.	.	.	.	.
=162	=162	=162	=162	=162	=162	=162	=162
1E	-vi,	2c\	.	1e	ex-	1r	.
.	.	2B\	.	.	.	.	.
2r	.	1e	-vi,	2.g/	-qui	1b	ex-
2E\	ex-	.	.	.	.	.	.
.	.	.	.	4f/	.	.	.
=163	=163	=163	=163	=163	=163	=163	=163
1E	-qui-	1r	.	2e/	.	2cc\	-qui-
.	.	.	.	2d/	.	2b\	.
1AA	-si-	[1e	ex-	1c	-si-	1a	-si-
=164	=164	=164	=164	=164	=164	=164	=164
[0El	-vi.	2e\]	.	[0Bl	-vi.	[0gl	-vi.
.	.	2e\	-qui-	.	.	.	.
.	.	1e	-si-	.	.	.	.
=165	=165	=165	=165	=165	=165	=165	=165
0E]	.	0el	-vi.	0B]	.	0g]	.
!!LO:LB:i:g=z
=166||	=166||	=166||	=166||	=166||	=166||	=166||	=166||
*>B	*	*>B	*	*>B	*	*>B	*
!!section: Portio mea
!!!OMD: Secunda pars: Portio mea
*M2/1	*	*M2/1	*	*M2/1	*	*M2/1	*
*met(C|)	*	*met(C|)	*	*met(C|)	*	*met(C|)	*
0r	.	1d	Por-	0r	.	1r	.
.	.	2d\	-ti-	.	.	1a	Por-
.	.	2d\	-o	.	.	.	.
=167	=167	=167	=167	=167	=167	=167	=167
0r	.	2d\	me-	0r	.	2a/	-ti-
.	.	2c\	-a	.	.	2a/	-o
.	.	2d\	do-	.	.	2a/	me-
.	.	2e\	.	.	.	2g/	-a
=168	=168	=168	=168	=168	=168	=168	=168
0r	.	1.f	.	0r	.	2a/	do-
.	.	.	.	.	.	2b\	.
.	.	.	.	.	.	[1cc	.
.	.	4e\	-mi-	.	.	.	.
.	.	4d\	.	.	.	.	.
=169	=169	=169	=169	=169	=169	=169	=169
0r	.	1c	-ne,	0r	.	2cc\]	.
.	.	.	.	.	.	4b\	-mi-
.	.	.	.	.	.	4a/	.
.	.	2c\	di-	.	.	1g	-ne,
.	.	2c\	-xi	.	.	.	.
=170	=170	=170	=170	=170	=170	=170	=170
0r	.	2c\	cus-	0r	.	2g/	di-
.	.	2c\	-to-	.	.	2g/	-xi
.	.	1c	-di-	.	.	2g/	cus-
.	.	.	.	.	.	2g/	-to-
=171	=171	=171	=171	=171	=171	=171	=171
0r	.	2.G/	-re	0r	.	1g	-di-
.	.	4A/	.	.	.	.	.
.	.	4B\	.	.	.	2.d/	-re
.	.	4c\	.	.	.	.	.
.	.	[2d\	.	.	.	.	.
.	.	.	.	.	.	4e/	.
=172	=172	=172	=172	=172	=172	=172	=172
0r	.	2d\]	.	0r	.	4f/	.
.	.	.	.	.	.	4g/	.
.	.	4A/	le-	.	.	1a	.
.	.	4B\	.	.	.	.	.
.	.	4c\	.	.	.	.	.
.	.	4d\	.	.	.	.	.
.	.	[2e\	-gem	.	.	[2g/	le-
=173	=173	=173	=173	=173	=173	=173	=173
0r	.	2e\]	.	0r	.	2g/]	.
.	.	2.d\	tu-	.	.	2f/	-gem
.	.	.	.	.	.	1e	tu-
.	.	4c#i\	.	.	.	.	.
.	.	4c#i\	.	.	.	.	.
.	.	4B\	.	.	.	.	.
=174	=174	=174	=174	=174	=174	=174	=174
0r	.	[0d	-am.	0r	.	1d	-am.
.	.	.	.	.	.	1r	.
=175	=175	=175	=175	=175	=175	=175	=175
0r	.	0d]	.	1r	.	1.d	De-
.	.	.	.	[1d	De-	.	.
.	.	.	.	.	.	2e/	-pre-
=176	=176	=176	=176	=176	=176	=176	=176
1.D	De-	0r	.	2d/]	.	2f/	-ca-
.	.	.	.	2e/	-pre-	2g/	-tus
.	.	.	.	2f/	-ca-	1a	sum
2E\	-pre-	.	.	2g/	-tus	.	.
=177	=177	=177	=177	=177	=177	=177	=177
2F\	-ca-	1.A	De-	1a	sum	1r	.
2G\	-tus	.	.	.	.	.	.
1A	sum	.	.	1r	.	1cc	fa-
.	.	2B\	-pre-	.	.	.	.
=178	=178	=178	=178	=178	=178	=178	=178
1r	.	2c\	-ca-	1a	fa-	1cc	-ci-
.	.	2d\	-tus	.	.	.	.
1A	fa-	1e	sum	2a/	-ci-	1cc	-em
.	.	.	.	2a/	-em	.	.
=179	=179	=179	=179	=179	=179	=179	=179
2A\	-ci-	2r	.	1a	tu-	0cc	tu-
2A\	-em	2e\	fa-	.	.	.	.
1A	tu-	2e\	-ci-	1e	-am	.	.
.	.	2e\	-em	.	.	.	.
=180	=180	=180	=180	=180	=180	=180	=180
1E	-am	1e	tu-	2r	.	1b	-am
.	.	.	.	2g/	in	.	.
2r	.	1B	-am	2g/	to-	1b	in
2G\	in	.	.	2g/	-to	.	.
=181	=181	=181	=181	=181	=181	=181	=181
2G\	to-	2r	.	1g	cor-	2b\	to-
2G\	-to	2d\	in	.	.	2b\	-to
1G	cor-	2d\	to-	2.d/	.	1b	cor-
.	.	2d\	-to	.	.	.	.
.	.	.	.	4e/	.	.	.
=182	=182	=182	=182	=182	=182	=182	=182
2.D\	.	1d	cor-	4f/	.	2.a/	.
.	.	.	.	4g/	.	.	.
.	.	.	.	1f	.	.	.
4E\	.	.	.	.	.	4g/	.
4F\	.	2.c\	.	.	.	4a/	.
4G\	.	.	.	.	.	4b\	.
[2A\	.	.	.	4e/	.	[2cc\	.
.	.	4B\	.	4d/	.	.	.
=183	=183	=183	=183	=183	=183	=183	=183
4A\]	.	2A/	.	2c/	-de	2cc\]	.
4G\	.	.	.	.	.	.	.
2E\	-de	2G/	-de	1e	me-	2b\	-de
1F	me-	1A	me-	.	.	1a	me-
.	.	.	.	2d/	.	.	.
=184	=184	=184	=184	=184	=184	=184	=184
1E	-o&colon;	1B	-o&colon;	1e	-o&colon;	1g	-o&colon;
1r	.	1r	.	1r	.	1r	.
=185	=185	=185	=185	=185	=185	=185	=185
1.C	mi-	1.c	mi-	1.e	mi-	1.g	mi-
2C/	-se-	2c\	-se-	2e/	-se-	2g/	-se-
=186	=186	=186	=186	=186	=186	=186	=186
2C/	-re-	2c\	-re-	2e/	-re-	2g/	-re-
2C/	-re	2c\	-re	2e/	-re	2g/	-re
1D	me-	2.F/	me-	1d	me-	1f	me-
.	.	4G/	.	.	.	.	.
=187	=187	=187	=187	=187	=187	=187	=187
[0AA	-i	[0A	-i	1c	-i	2e/	-i
.	.	.	.	.	.	2A/	se-
.	.	.	.	2r	.	2.c/	-cun-
.	.	.	.	2A/	se-	.	.
.	.	.	.	.	.	4d/	.
=188	=188	=188	=188	=188	=188	=188	=188
0AA]	.	0A]	.	2.c/	-cun-	2e/	.
.	.	.	.	.	.	2A/	-dum
.	.	.	.	4d/	.	.	.
.	.	.	.	2e/	.	2r	.
.	.	.	.	2A/	-dum	2e/	e-
=189	=189	=189	=189	=189	=189	=189	=189
0r	.	0r	.	2r	.	2f/	-lo-
.	.	.	.	2e/	e-	2g/	-qui-
.	.	.	.	2.f/	-lo-	2a/	-um
.	.	.	.	.	.	4d/	tu-
.	.	.	.	4g/	-qui-	4e/	.
=190	=190	=190	=190	=190	=190	=190	=190
0r	.	0r	.	2a/	-um	4f/	.
.	.	.	.	.	.	4g/	.
.	.	.	.	2d/	tu-	4a/	.
.	.	.	.	.	.	4f/	.
.	.	.	.	2e/	.	2g/	.
.	.	.	.	[2f/	.	[2a/	.
=191	=191	=191	=191	=191	=191	=191	=191
0r	.	0r	.	4f/]	.	4a/]	.
.	.	.	.	4e/	.	4g/	.
.	.	.	.	2.d/	.	2f/	.
.	.	.	.	.	.	1e	.
.	.	.	.	4c#i/	.	.	.
.	.	.	.	4c#i/	.	.	.
.	.	.	.	4B/	.	.	.
=192	=192	=192	=192	=192	=192	=192	=192
1D	Co-	0r	.	0d	-um.	0d	-um.
1G	-gi-	.	.	.	.	.	.
=193	=193	=193	=193	=193	=193	=193	=193
1F	-ta-	1A	Co-	0r	.	0r	.
1D	-vi	1d	-gi-	.	.	.	.
=194	=194	=194	=194	=194	=194	=194	=194
2.A\	vi-	1c	-ta-	0r	.	0r	.
4B\	.	.	.	.	.	.	.
2c\	-as	1A	-vi	.	.	.	.
[2F\	me-	.	.	.	.	.	.
=195	=195	=195	=195	=195	=195	=195	=195
2F\]	.	1.c	vi-	0r	.	0r	.
4E\	.	.	.	.	.	.	.
4D\	.	.	.	.	.	.	.
4C/	.	.	.	.	.	.	.
4D\	.	.	.	.	.	.	.
4E\	.	2c\	-as	.	.	.	.
4F\	.	.	.	.	.	.	.
=196	=196	=196	=196	=196	=196	=196	=196
4E\	.	2.c\	me-	0r	.	0r	.
4AA/	.	.	.	.	.	.	.
2.A\	.	.	.	.	.	.	.
.	.	4A/	.	.	.	.	.
.	.	1B	.	.	.	.	.
4G#i\	.	.	.	.	.	.	.
4G#i\	.	.	.	.	.	.	.
4F#i\	.	.	.	.	.	.	.
=197	=197	=197	=197	=197	=197	=197	=197
1A	-as&colon;	0A	-as&colon;	0r	.	0r	.
1D	et	.	.	.	.	.	.
=198	=198	=198	=198	=198	=198	=198	=198
1G	con-	1r	.	0r	.	0r	.
1F	-ver-	1A	et	.	.	.	.
=199	=199	=199	=199	=199	=199	=199	=199
1D	-ti	1d	con-	0r	.	0r	.
2.A\	pe-	1c	-ver-	.	.	.	.
4B\	.	.	.	.	.	.	.
=200	=200	=200	=200	=200	=200	=200	=200
2c\	-des	1A	-ti	0r	.	0r	.
1F	me-	.	.	.	.	.	.
.	.	[1c	pe-	.	.	.	.
4E\	.	.	.	.	.	.	.
4D\	.	.	.	.	.	.	.
=201	=201	=201	=201	=201	=201	=201	=201
4C/	.	2c\]	.	0r	.	0r	.
4D\	.	.	.	.	.	.	.
4E\	.	2c\	-des	.	.	.	.
4F\	.	.	.	.	.	.	.
4E\	.	2.c\	me-	.	.	.	.
4AA/	.	.	.	.	.	.	.
[2A\	.	.	.	.	.	.	.
.	.	4A/	.	.	.	.	.
=202	=202	=202	=202	=202	=202	=202	=202
4A\]	.	1B	.	0r	.	0r	.
4G#i\	.	.	.	.	.	.	.
4G#i\	.	.	.	.	.	.	.
4F#i\	.	.	.	.	.	.	.
1A	-os	1A	-os	.	.	.	.
=203	=203	=203	=203	=203	=203	=203	=203
1D	in	1r	.	0r	.	0r	.
[1A	tes-	1D	in	.	.	.	.
=204	=204	=204	=204	=204	=204	=204	=204
2A\]	.	1.A	tes-	0r	.	0r	.
2G\	-ti-	.	.	.	.	.	.
2F\	-mo-	.	.	.	.	.	.
2E\	-ni-	2G/	-ti-	.	.	.	.
=205	=205	=205	=205	=205	=205	=205	=205
1D	-a	2F/	-mo-	0r	.	0r	.
.	.	2E/	-ni-	.	.	.	.
1F	.	2D/	-a	.	.	.	.
.	.	[2d\	tu-	.	.	.	.
=206	=206	=206	=206	=206	=206	=206	=206
2.E\	tu-	2d\]	.	0r	.	0r	.
.	.	4c#i\	.	.	.	.	.
4D\	.	4B\	.	.	.	.	.
1E	.	1c#i	.	.	.	.	.
=207	=207	=207	=207	=207	=207	=207	=207
0D	-a.	0d	-a.	1d	In	1r	.
.	.	.	.	[1a	tes-	1d	In
=208	=208	=208	=208	=208	=208	=208	=208
0r	.	0r	.	2a/]	.	1.a	tes-
.	.	.	.	2g/	-ti-	.	.
.	.	.	.	2f/	-mo-	.	.
.	.	.	.	2e/	-ni-	2g/	-ti-
=209	=209	=209	=209	=209	=209	=209	=209
0r	.	0r	.	1d	-a	2f/	-mo-
.	.	.	.	.	.	2e/	-ni-
.	.	.	.	1f	tu-	2d/	-a
.	.	.	.	.	.	[2dd\	tu-
=210	=210	=210	=210	=210	=210	=210	=210
1r	.	0r	.	2.e/	.	2dd\]	.
.	.	.	.	.	.	4cc#i\	.
.	.	.	.	4d/	.	4b\	.
2r	.	.	.	1e	.	1cc#i	.
2AA/	Pa-	.	.	.	.	.	.
=211	=211	=211	=211	=211	=211	=211	=211
2BB/	-ra-	1r	.	0d	-a.	0dd	-a.
2C/	-tus	.	.	.	.	.	.
[1D	sum,	2r	.	.	.	.	.
.	.	2A/	Pa-	.	.	.	.
=212	=212	=212	=212	=212	=212	=212	=212
2D\]	.	2B\	-ra-	0r	.	0r	.
2AA/	et	2c\	-tus	.	.	.	.
2BB/	non	[1d	sum,	.	.	.	.
2C/	sum	.	.	.	.	.	.
=213	=213	=213	=213	=213	=213	=213	=213
2.D\	con-	2d\]	.	0r	.	0r	.
.	.	2A/	et	.	.	.	.
4F\	-tur-	.	.	.	.	.	.
1E	-ba-	2B\	non	.	.	.	.
.	.	2c\	sum	.	.	.	.
=214	=214	=214	=214	=214	=214	=214	=214
1D	-tus&colon;	2.d\	con-	1r	.	2r	.
.	.	.	.	.	.	2a/	Pa-
.	.	4f\	-tur-	.	.	.	.
1r	.	1e	-ba-	2r	.	2b\	-ra-
.	.	.	.	2A/	Pa-	2cc\	-tus
=215	=215	=215	=215	=215	=215	=215	=215
0r	.	0d	-tus&colon;	2B/	-ra-	1.dd	sum,
.	.	.	.	2c/	-tus	.	.
.	.	.	.	[1d	sum,	.	.
.	.	.	.	.	.	2a/	et
=216	=216	=216	=216	=216	=216	=216	=216
0r	.	0r	.	2d/]	.	2b\	non
.	.	.	.	2c/	et	2cc\	sum
.	.	.	.	2d/	non	2f/	con-
.	.	.	.	2e/	sum	[2cc\	.
=217	=217	=217	=217	=217	=217	=217	=217
0r	.	0r	.	2c/	con-	2cc\]	.
.	.	.	.	2.f/	-tur-	2a/	-tur-
.	.	.	.	.	.	1g	-ba-
.	.	.	.	4e/	.	.	.
.	.	.	.	4e/	-ba-	.	.
.	.	.	.	4d/	.	.	.
=218	=218	=218	=218	=218	=218	=218	=218
0F	ut	1r	.	0f	-tus&colon;	1f	-tus&colon;
.	.	1c	ut	.	.	1a	ut
=219	=219	=219	=219	=219	=219	=219	=219
1F	cus-	1c	cus-	2r	.	1a	cus-
.	.	.	.	1f	ut	.	.
[1F	-to-	[1c	-to-	.	.	[1a	-to-
.	.	.	.	2f/	cus-	.	.
=220	=220	=220	=220	=220	=220	=220	=220
2F\]	.	2c\]	.	2f/	-to-	2a/]	.
2F\	-di-	2c\	-di-	2f/	-di-	2a/	-di-
1C	-am	1c	-am	2.e/	-am	1g	-am
.	.	.	.	4c/	.	.	.
=221	=221	=221	=221	=221	=221	=221	=221
2r	.	2r	.	1c	.	2.cc\	man-
1F	man-	2A/	man-	.	.	.	.
.	.	.	.	.	.	4b\	.
.	.	2F/	-da-	2r	.	2a/	.
2E\	.	2G/	-ta	2c/	man-	2g/	.
=222	=222	=222	=222	=222	=222	=222	=222
2D\	-da-	1A	tu-	2d/	-da-	2f/	-da-
2C/	-ta	.	.	2e/	-ta	2e/	-ta
1BB-	tu-	1D	-a,	2.f/	tu-	1d	tu-
.	.	.	.	4d/	.	.	.
=223	=223	=223	=223	=223	=223	=223	=223
0AA	-a,	1r	.	2f/	.	2c/	-a,
.	.	.	.	1e	.	4cc\	tu-
.	.	.	.	.	.	4b\	.
.	.	2r	.	.	.	4a/	.
.	.	.	.	.	.	4g/	.
.	.	2A/	man-	[2f/	.	[2a/	.
=224	=224	=224	=224	=224	=224	=224	=224
0r	.	2F/	-da-	2f/]	.	2a/]	.
.	.	2G/	-ta	4e/	.	4g/	.
.	.	.	.	4d/	.	4f/	.
.	.	1A	tu-	2c/	-a,	2e/	-a,
.	.	.	.	4a/	tu-	4cc\	tu-
.	.	.	.	4g/	.	4b\	.
=225	=225	=225	=225	=225	=225	=225	=225
2r	.	1D	-a,	4f/	.	4a/	.
.	.	.	.	4e/	.	4g/	.
2A\	man-	.	.	1f	.	1a	.
2F\	-da-	1r	.	.	.	.	.
2G\	-ta	.	.	4e/	.	4g/	.
.	.	.	.	4d/	.	4f/	.
=226	=226	=226	=226	=226	=226	=226	=226
1A	tu-	1r	.	2c/	-a,	2e/	-a,
.	.	.	.	4a/	tu-	4cc\	tu-
.	.	.	.	4g/	.	4b\	.
1D	-a.	2r	.	4f/	.	4a/	.
.	.	.	.	4e/	.	4g/	.
.	.	2A/	man-	[2f/	.	[2a/	.
=227	=227	=227	=227	=227	=227	=227	=227
0r	.	2F/	-da-	2f/]	.	2a/]	.
.	.	2G/	-ta	4e/	.	4g/	.
.	.	.	.	4d/	.	4f/	.
.	.	1A	tu-	4c#i/	.	1e	.
.	.	.	.	4d/	.	.	.
.	.	.	.	4e/	.	.	.
.	.	.	.	4c#i/	.	.	.
=228	=228	=228	=228	=228	=228	=228	=228
0r	.	0D	-a.	[0d	-a.	0d	-a.
=229	=229	=229	=229	=229	=229	=229	=229
3%4DV	Fu-	0r	.	0d]	.	0r	.
3%2DZ	-nes	.	.	.	.	.	.
=230	=230	=230	=230	=230	=230	=230	=230
3%2DV	pec-	3%4AV	Fu-	0r	.	0r	.
3%2C	-ca-	.	.	.	.	.	.
[3%2FZ	-to-	3%2AZ	-nes	.	.	.	.
=231	=231	=231	=231	=231	=231	=231	=231
3%2F]V	.	3%2AV	pec-	0r	.	0r	.
3%2E	-rum	3%2G	-ca-	.	.	.	.
3%2rZ	.	[3%2cZ	-to-	.	.	.	.
=232	=232	=232	=232	=232	=232	=232	=232
3%4EV	cir-	3%2c]V	.	0r	.	0r	.
.	.	3%2B	-rum	.	.	.	.
3%2EZ	-cum-	3%2rZ	.	.	.	.	.
=233	=233	=233	=233	=233	=233	=233	=233
3%2EV	-plex-	3%4BV	cir-	0r	.	0r	.
3%2D	-i	.	.	.	.	.	.
[3%2GZ	sunt	3%2BZ	-cum-	.	.	.	.
=234	=234	=234	=234	=234	=234	=234	=234
3%2G]V	.	3%2BV	-plex-	0r	.	0r	.
3%2F	me&colon;	3%2A	-i	.	.	.	.
3%2rZ	.	[3%2dZ	sunt	.	.	.	.
=235	=235	=235	=235	=235	=235	=235	=235
3%4FV	et	3%2d]V	.	0r	.	0r	.
.	.	3%2c	me&colon;	.	.	.	.
3%2FZ	le-	3%2rZ	.	.	.	.	.
=236	=236	=236	=236	=236	=236	=236	=236
3%2EV	-gem	3%4cV	et	0r	.	0r	.
3%4AZ	tu-	.	.	.	.	.	.
.	.	3%2cZ	le-	.	.	.	.
=237	=237	=237	=237	=237	=237	=237	=237
3%4GV	-am	3%2BV	-gem	0r	.	0r	.
.	.	3%4eZ	tu-	.	.	.	.
3%2rZ	.	.	.	.	.	.	.
=238	=238	=238	=238	=238	=238	=238	=238
3%4GV	non	3%4dV	-am	0r	.	0r	.
3%2FZ	sum	3%2rZ	.	.	.	.	.
=239	=239	=239	=239	=239	=239	=239	=239
3%2GV	o-	3%4dV	non	0r	.	0r	.
3%4EZ	-bli-	.	.	.	.	.	.
.	.	3%2cZ	sum	.	.	.	.
=240	=240	=240	=240	=240	=240	=240	=240
1D	-tus.	3%2dV	o-	1r	.	0r	.
.	.	3%4BZ	-bli-	.	.	.	.
1r	.	.	.	1d	Me-	.	.
=241	=241	=241	=241	=241	=241	=241	=241
0r	.	0A	-tus.	2f/	-di-	1a	Me-
.	.	.	.	2f/	-a	.	.
.	.	.	.	1e	noc-	2cc\	-di-
.	.	.	.	.	.	2cc\	-a
=242	=242	=242	=242	=242	=242	=242	=242
0r	.	0r	.	1d	-te	1b	noc-
.	.	.	.	1f	sur-	1a	-te
=243	=243	=243	=243	=243	=243	=243	=243
1r	.	0r	.	1e	-ge-	1cc	sur-
2r	.	.	.	1d	-bam	1b	-ge-
2D\	Me-	.	.	.	.	.	.
=244	=244	=244	=244	=244	=244	=244	=244
2F\	-di-	2r	.	0r	.	1a	-bam
2F\	-a	2A/	Me-	.	.	.	.
1E	noc-	2c\	-di-	.	.	1r	.
.	.	2c\	-a	.	.	.	.
=245	=245	=245	=245	=245	=245	=245	=245
1D	-te	1B	noc-	0r	.	0r	.
1F	sur-	1A	-te	.	.	.	.
=246	=246	=246	=246	=246	=246	=246	=246
1E	-ge-	1c	sur-	1r	.	0r	.
1D	-bam	1B	-ge-	2r	.	.	.
.	.	.	.	2d/	ad	.	.
=247	=247	=247	=247	=247	=247	=247	=247
0r	.	1A	-bam	2c/	con-	2r	.
.	.	.	.	2A/	-fi-	2a/	ad
.	.	1r	.	2B/	-ten-	2g/	con-
.	.	.	.	2c/	dum	2e/	-fi-
=248	=248	=248	=248	=248	=248	=248	=248
1r	.	0r	.	1d	ti-	2f/	-ten-
.	.	.	.	.	.	2g/	dum
2r	.	.	.	1A	-bi,	1a	ti-
2D\	ad	.	.	.	.	.	.
=249	=249	=249	=249	=249	=249	=249	=249
2C/	con-	2r	.	0r	.	1e	-bi,
2AA/	-fi-	2A/	ad	.	.	.	.
2BB/	-ten-	2G/	con-	.	.	1r	.
2C/	-dum	2E/	-fi-	.	.	.	.
=250	=250	=250	=250	=250	=250	=250	=250
1D	ti-	2F/	-ten-	0r	.	1r	.
.	.	2G/	-dum	.	.	.	.
1AA	-bi,	1A	ti-	.	.	1a	su-
=251	=251	=251	=251	=251	=251	=251	=251
0r	.	1E	-bi,	1e	su-	2g/	-per
.	.	.	.	.	.	2e/	ju-
.	.	1r	.	2d/	-per	2f/	-di-
.	.	.	.	2B/	ju-	2g/	-ci-
=252	=252	=252	=252	=252	=252	=252	=252
0r	.	0r	.	2c/	-di-	2e/	-a
.	.	.	.	2d/	-ci-	2f/	jus-
.	.	.	.	2B/	-a	2g/	-ti-
.	.	.	.	2c/	jus-	2e/	-fi-
=253	=253	=253	=253	=253	=253	=253	=253
0r	.	0r	.	2d/	-ti-	2f/	-ca-
.	.	.	.	2B/	-fi-	2g/	-ti-
.	.	.	.	2c/	-ca-	2a/	-o-
.	.	.	.	2d/	-ti-	2f/	-nis
=254	=254	=254	=254	=254	=254	=254	=254
0r	.	1r	.	2e/	-o-	1e	tu-
.	.	.	.	2c/	-nis	.	.
.	.	2r	.	1B	tu-	1d	-e.
.	.	2d\	su-	.	.	.	.
=255	=255	=255	=255	=255	=255	=255	=255
1A	su-	2c\	-per	1A	-e.	0r	.
.	.	2A/	ju-	.	.	.	.
2G\	-per	2B\	-di-	1r	.	.	.
2E\	ju-	2c\	-ci-	.	.	.	.
=256	=256	=256	=256	=256	=256	=256	=256
2F\	-di-	2A/	-a	0r	.	0r	.
2G\	-ci-	2B\	jus-	.	.	.	.
2E\	-a	2c\	-ti-	.	.	.	.
2F\	jus-	2A/	-fi-	.	.	.	.
=257	=257	=257	=257	=257	=257	=257	=257
2G\	-ti-	2B\	-ca-	0r	.	0r	.
2E\	-fi-	2c\	-ti-	.	.	.	.
2F\	-ca-	2d\	-o-	.	.	.	.
2G\	-ti-	2B\	-nis	.	.	.	.
=258	=258	=258	=258	=258	=258	=258	=258
2A\	-o-	1A	tu-	0r	.	0r	.
2F\	-nis	.	.	.	.	.	.
1E	tu-	1G	-e.	.	.	.	.
=259	=259	=259	=259	=259	=259	=259	=259
0D	-e.	0r	.	1.d	Par-	0r	.
.	.	.	.	2d/	-ti-	.	.
=260	=260	=260	=260	=260	=260	=260	=260
0r	.	0r	.	1c	-ceps	1.a	Par-
.	.	.	.	1d	e-	.	.
.	.	.	.	.	.	2a/	-ti-
=261	=261	=261	=261	=261	=261	=261	=261
0r	.	0r	.	1B	-go	1g	-ceps
.	.	.	.	1A	sum	1a	e-
=262	=262	=262	=262	=262	=262	=262	=262
1.A	Par-	0r	.	0r	.	1f	-go
.	.	.	.	.	.	1e	sum
2A\	-ti-	.	.	.	.	.	.
=263	=263	=263	=263	=263	=263	=263	=263
1G	-ceps	1.e	Par-	0r	.	0r	.
1A	e-	.	.	.	.	.	.
.	.	2e\	-ti-	.	.	.	.
=264	=264	=264	=264	=264	=264	=264	=264
1F	-go	1d	-ceps	0r	.	0r	.
1E	sum	1e	e-	.	.	.	.
=265	=265	=265	=265	=265	=265	=265	=265
3%2EV	om-	1c	-go	3%2eV	om-	3%2gV	om-
3%2E	-ni-	.	.	3%2e	-ni-	3%2g	-ni-
.	.	1B	sum	.	.	.	.
3%2EZ	-um	.	.	3%2eZ	-um	3%2gZ	-um
=266	=266	=266	=266	=266	=266	=266	=266
3%4EV	ti-	3%2BV	om-	3%4eV	ti-	3%4gV	ti-
.	.	3%2B	-ni-	.	.	.	.
3%2DZ	-men-	3%2BZ	-um	3%2fZ	-men-	3%2fZ	-men-
=267	=267	=267	=267	=267	=267	=267	=267
3%2EV	-ti-	3%4BV	-ti-	3%2eV	-ti-	3%2gV	-ti-
3%4FZ	-um	.	.	3%2.d	-um	3%4aZ	-um
.	.	3%2AZ	-men	.	.	.	.
.	.	.	.	3c/Z	.	.	.
=268	=268	=268	=268	=268	=268	=268	=268
1E	te&colon;	3%2BV	-ti-	0e	te&colon;	0g	te&colon;
.	.	3%4cZ	-um	.	.	.	.
1r	.	.	.	.	.	.	.
=269	=269	=269	=269	=269	=269	=269	=269
1.G	et	0B	te&colon;	1r	.	0r	.
.	.	.	.	[1d	et	.	.
2G\	cus-	.	.	.	.	.	.
=270	=270	=270	=270	=270	=270	=270	=270
2G\	-to-	0r	.	2d/]	.	0r	.
2F\	-di-	.	.	2d/	cus-	.	.
2G\	-en-	.	.	2d/	-to-	.	.
2E\	-ti-	.	.	2c/	-di-	.	.
=271	=271	=271	=271	=271	=271	=271	=271
0D	-um	1.d	et	2d/	-en-	1r	.
.	.	.	.	2B/	-ti-	.	.
.	.	.	.	1A	-um	[1a	et
.	.	2d\	cus-	.	.	.	.
=272	=272	=272	=272	=272	=272	=272	=272
0r	.	2d\	-to-	0r	.	2a/]	.
.	.	2c\	-di-	.	.	2a/	cus-
.	.	2d\	-en-	.	.	2a/	-to-
.	.	2B\	-ti-	.	.	2g/	-di-
=273	=273	=273	=273	=273	=273	=273	=273
0r	.	1A	-um	0r	.	2a/	-en-
.	.	.	.	.	.	2f/	-ti-
.	.	1r	.	.	.	1e	-um
=274	=274	=274	=274	=274	=274	=274	=274
3%4DV	man-	0r	.	3%4fV	man-	3%4dV	man-
3%2CZ	-da-	.	.	3%2eZ	-da-	3%2eZ	-da-
=275	=275	=275	=275	=275	=275	=275	=275
3%2DV	-ta	3%4AV	man-	3%2dV	-ta	3%2fV	-ta
3%4EZ	tu-	.	.	3%2.c	tu-	3%4gZ	tu-
.	.	3%2GZ	-da-	.	.	.	.
.	.	.	.	3B/Z	.	.	.
=276	=276	=276	=276	=276	=276	=276	=276
1D	-a,	3%2AV	-ta	1d	-a,	1f	-a,
.	.	3%4B-Z	tu-	.	.	.	.
1r	.	.	.	1r	.	1r	.
=277	=277	=277	=277	=277	=277	=277	=277
3%4DV	man-	1A	-a,	3%4f	man-	3%4dV	man-
.	.	1r	.	.	.	.	.
3%2CZ	-da-	.	.	3%2e	-da-	3%2eZ	-da-
=278	=278	=278	=278	=278	=278	=278	=278
3%2DV	-ta	3%4AV	man-	3%2dV	-ta	3%2fV	-ta
3%4EZ	tu-	.	.	3%2.c	tu-	3%4gZ	tu-
.	.	3%2GZ	-da-	.	.	.	.
.	.	.	.	3B/Z	.	.	.
=279	=279	=279	=279	=279	=279	=279	=279
[0D	-a.	3%2AV	-ta	[0d\	-a.	[0f	-a.
.	.	3%4B-iZ	tu-	.	.	.	.
=280	=280	=280	=280	=280	=280	=280	=280
0D_	.	1A	-a.	0d]\	.	0f]	.
.	.	2r	.	.	.	.	.
.	.	[2D/	Mi-	.	.	.	.
=281	=281	=281	=281	=281	=281	=281	=281
0D]	.	4D/]	.	1r	.	0r	.
.	.	4E/	.	.	.	.	.
.	.	2F/	-se-	.	.	.	.
.	.	2D/	-ri-	1d	Mi-	.	.
.	.	[2d\	-cor-	.	.	.	.
=282	=282	=282	=282	=282	=282	=282	=282
0r	.	2d\]	.	2d/	-se-	1a	Mi-
.	.	4c\	.	2d/	-ri-	.	.
.	.	4B\	.	.	.	.	.
.	.	1A	-di-	2e/	-cor-	2a/	-se-
.	.	.	.	2f/	-di-	2a/	-ri-
=283	=283	=283	=283	=283	=283	=283	=283
2.G\	Mi-	0G	-a...	1g	-a,	2b\	-cor-
.	.	.	.	.	.	2cc\	-di-
4A\	-se-	.	.	.	.	.	.
2B\	-ri-	.	.	1r	.	1dd	-a
4G\	.	.	.	.	.	.	.
4A\	.	.	.	.	.	.	.
=284	=284	=284	=284	=284	=284	=284	=284
4B\	.	0r	.	1d	mi-	0dd	tu-
4c\	.	.	.	.	.	.	.
1d	-cor-	.	.	.	.	.	.
.	.	.	.	2d/	-se-	.	.
4c\	.	.	.	2d/	-ri-	.	.
4B\	.	.	.	.	.	.	.
=285	=285	=285	=285	=285	=285	=285	=285
1A	-di-	0r	.	2e/	-cor-	1cc	-a
.	.	.	.	2f/	-di-	.	.
1G	-a...	.	.	1g	-a	[1b	do-
=286	=286	=286	=286	=286	=286	=286	=286
0r	.	0r	.	0g	tu-	2b\]	.
.	.	.	.	.	.	2b\	-mi-
.	.	.	.	.	.	1b	-ne
=287	=287	=287	=287	=287	=287	=287	=287
0r	.	0r	.	1f	-a	2r	.
.	.	.	.	.	.	2a/	ple-
.	.	.	.	[1e	do-	2b\	.
.	.	.	.	.	.	[2cc\	.
=288	=288	=288	=288	=288	=288	=288	=288
0r	.	0r	.	2e/]	.	2cc\]	.
.	.	.	.	2e/	-mi-	4b\	.
.	.	.	.	.	.	4a/	.
.	.	.	.	1e	-ne	1g	-na
=289	=289	=289	=289	=289	=289	=289	=289
0r	.	0r	.	2.f/	ple-	2f/	est
.	.	.	.	.	.	2a/	ter-
.	.	.	.	4d/	.	.	.
.	.	.	.	2d/	-na	2b\	.
.	.	.	.	[2e/	est	[2cc\	.
=290	=290	=290	=290	=290	=290	=290	=290
0r	.	0r	.	4e/]	.	2cc\]	.
.	.	.	.	4c/	.	.	.
.	.	.	.	2.f/	ter-	4b\	.
.	.	.	.	.	.	4a/	.
.	.	.	.	.	.	1g	.
.	.	.	.	4e/	.	.	.
.	.	.	.	4e/	.	.	.
.	.	.	.	4d/	.	.	.
=291	=291	=291	=291	=291	=291	=291	=291
0r	.	0r	.	1f	-ra&colon;	0f	-ra&colon;
.	.	.	.	1r	.	.	.
=292	=292	=292	=292	=292	=292	=292	=292
0r	.	0r	.	1f	jus-	1r	.
.	.	.	.	2f/	-ti-	1cc	jus-
.	.	.	.	2f/	-fi-	.	.
=293	=293	=293	=293	=293	=293	=293	=293
0r	.	0r	.	2f/	-ca-	2cc\	-ti-
.	.	.	.	2f/	-ti-	2cc\	-fi-
.	.	.	.	2e/	-o-	2cc\	-ca-
.	.	.	.	2f/	-nes	2cc\	-ti-
=294	=294	=294	=294	=294	=294	=294	=294
0r	.	0r	.	2d/	tu-	2b\	-o-
.	.	.	.	1c	-as	2cc\	-nes
.	.	.	.	.	.	2a/	tu-
.	.	.	.	[2e/	do-	[2g/	-as
=295	=295	=295	=295	=295	=295	=295	=295
0r	.	0r	.	4e/]	.	2g/]	.
.	.	.	.	4d/	.	.	.
.	.	.	.	1d	-ce	2.b\	do-
.	.	.	.	.	.	4a/	.
.	.	.	.	2c/	.	[2a/	-ce
=296	=296	=296	=296	=296	=296	=296	=296
1D	Glo-	1r	.	0d	me.	4a/]	.
.	.	.	.	.	.	4g/	.
.	.	.	.	.	.	4f/	.
.	.	.	.	.	.	4e/	.
2D\	-ri-	1A	Glo-	.	.	1f	me.
2D\	-a	.	.	.	.	.	.
=297	=297	=297	=297	=297	=297	=297	=297
1D	pa-	2A/	-ri-	0r	.	0r	.
.	.	2A/	-a	.	.	.	.
2.C/	.	1A	pa-	.	.	.	.
4D\	.	.	.	.	.	.	.
=298	=298	=298	=298	=298	=298	=298	=298
4E\	.	2.G/	.	0r	.	0r	.
4F\	.	.	.	.	.	.	.
1G	-tri,	.	.	.	.	.	.
.	.	4A/	.	.	.	.	.
.	.	4B\	.	.	.	.	.
.	.	4c\	.	.	.	.	.
2F\	et	2d\	-tri,	.	.	.	.
=299	=299	=299	=299	=299	=299	=299	=299
2.A\	fi-	2c\	et	0r	.	0r	.
.	.	2.f\	fi-	.	.	.	.
4B-i\	.	.	.	.	.	.	.
1G	-li-	.	.	.	.	.	.
.	.	4e\	.	.	.	.	.
.	.	4e\	-li-	.	.	.	.
.	.	4d\	.	.	.	.	.
=300	=300	=300	=300	=300	=300	=300	=300
0F	-o,	0f	-o,	1r	.	1r	.
.	.	.	.	1f	Glo-	1a	Glo-
=301	=301	=301	=301	=301	=301	=301	=301
0r	.	0r	.	2f/	-ri-	2a/	-ri-
.	.	.	.	2f/	-a	2a/	-a
.	.	.	.	1f	pa-	1a	pa-
=302	=302	=302	=302	=302	=302	=302	=302
0r	.	0r	.	1e	-tri,	2g/	-tri,
.	.	.	.	.	.	2.cc\	et
.	.	.	.	1c	et	.	.
.	.	.	.	.	.	4b\	.
.	.	.	.	.	.	4a/	.
.	.	.	.	.	.	4g/	.
=303	=303	=303	=303	=303	=303	=303	=303
0r	.	0r	.	1d	fi-	2f/	fi-
.	.	.	.	.	.	2a/	.
.	.	.	.	1e	-li-	1g	-li-
=304	=304	=304	=304	=304	=304	=304	=304
1r	.	1r	.	1.f	-o,	0f	-o,
[1B-	et	[1d	et	.	.	.	.
.	.	.	.	[2f/	et	.	.
=305	=305	=305	=305	=305	=305	=305	=305
2B-\]	.	2d\]	.	2f/]	.	0r	.
2B-i\	spi-	2d\	spi-	2f/	spi-	.	.
2A\	ri-	2c\	ri-	2f/	ri-	.	.
2F\	-tu-	2A/	-tu-	2f/	-tu-	.	.
=306	=306	=306	=306	=306	=306	=306	=306
2.G\	-i	1B	-i	1e	-i	0r	.
4F\	.	.	.	.	.	.	.
1E	sanc-	1G	sanc-	1c	sanc-	.	.
=307	=307	=307	=307	=307	=307	=307	=307
1D	-to,	1A	-to,	1d	-to,	1r	.
2r	.	2r	.	[1f	et	[1a	et
[2D\	et	[2d\	et	.	.	.	.
=308	=308	=308	=308	=308	=308	=308	=308
2D\]	.	2d\]	.	2f/]	.	2a/]	.
2D\	spi-	2d\	spi-	2f/	spi-	2a/	spi-
2D\	-ri-	2d\	-ri-	2f/	-ri-	2a/	-ri-
2D\	-tu-	2d\	-tu-	2f/	-tu-	2a/	-tu-
=309	=309	=309	=309	=309	=309	=309	=309
1E	-i	1G	-i	1e	-i	2.g/	-i
.	.	.	.	.	.	4f/	.
1AA	sanc-	1A	sanc-	1c	sanc-	1e	sanc-
=310	=310	=310	=310	=310	=310	=310	=310
0D	.	1.F	.	0d	-to.	1d	-to.
.	.	.	.	.	.	1r	.
.	.	2D/	.	.	.	.	.
=311	=311	=311	=311	=311	=311	=311	=311
0r	-to.	0D	-to.	2r	.	2.d/	Me-
.	.	.	.	2.d/	Me-	.	.
.	.	.	.	.	.	4e/	-mor
.	.	.	.	.	.	2f/	es-
.	.	.	.	4e/	-mor	.	.
.	.	.	.	2f/	es-	2d/	-to
=312	=312	=312	=312	=312	=312	=312	=312
2.D\	Me-	2r	.	1d	-to	0r	.
.	.	2.D/	Me-	.	.	.	.
4E\	-mor	.	.	.	.	.	.
2F\	es-	.	.	1r	.	.	.
.	.	4E/	-mor	.	.	.	.
2D\	-to	2F/	es-	.	.	.	.
=313	=313	=313	=313	=313	=313	=313	=313
0r	.	1D	-to	2r	.	2.d/	ver-
.	.	.	.	2.d/	ver-	.	.
.	.	.	.	.	.	4e/	-bi
.	.	1r	.	.	.	2f/	tu-
.	.	.	.	4e/	-bi	.	.
.	.	.	.	2f/	tu-	2d/	-i
=314	=314	=314	=314	=314	=314	=314	=314
2.D\	ver-	2r	.	1d	-i	0r	.
.	.	2.D/	ver-	.	.	.	.
4E\	-bi	.	.	.	.	.	.
2F\	tu-	.	.	1r	.	.	.
.	.	4E/	-bi	.	.	.	.
2D\	-i	2F/	tu-	.	.	.	.
=315	=315	=315	=315	=315	=315	=315	=315
0r	.	1D	-i	2r	.	2.f/	ser-
.	.	.	.	2.f/	ser-	.	.
.	.	.	.	.	.	4g/	-vo
.	.	1r	.	.	.	2a/	tu-
.	.	.	.	4g/	-vo	.	.
.	.	.	.	2a/	tu-	2f/	-o,
=316	=316	=316	=316	=316	=316	=316	=316
2.F\	ser-	2r	.	1f	-o,	0r	.
.	.	2.F/	ser-	.	.	.	.
4G\	-vo	.	.	.	.	.	.
2A\	tu-	.	.	1r	.	.	.
.	.	4G/	-vo	.	.	.	.
2F\	-o,	2A/	tu-	.	.	.	.
=317	=317	=317	=317	=317	=317	=317	=317
0r	.	1F	-o,	2r	.	2.a/	in
.	.	.	.	2.a/	in	.	.
.	.	.	.	.	.	4b\	quo
.	.	1r	.	.	.	2cc\	mi-
.	.	.	.	4b\	quo	.	.
.	.	.	.	2cc\	mi-	2a/	-hi
=318	=318	=318	=318	=318	=318	=318	=318
2.A\	in	2r	.	1a	-hi	0r	.
.	.	2.A/	in	.	.	.	.
4B\	quo	.	.	.	.	.	.
2c\	mi-	.	.	1r	.	.	.
.	.	4B\	quo	.	.	.	.
2A\	-hi	2c\	mi-	.	.	.	.
=319	=319	=319	=319	=319	=319	=319	=319
0r	.	1A	-hi	2r	.	2.cc\	spem
.	.	.	.	2.cc\	spem	.	.
.	.	.	.	.	.	4dd\	.
.	.	1r	.	.	.	2ee\	de-
.	.	.	.	4b\	.	.	.
.	.	.	.	4a/	.	[2ff\	-di-
.	.	.	.	4g/	.	.	.
=320	=320	=320	=320	=320	=320	=320	=320
0r	.	0r	.	2f/	.	4ff\]	.
.	.	.	.	.	.	4ee\	.
.	.	.	.	2g/	de-	2.dd\	.
.	.	.	.	1e	-di-	.	.
.	.	.	.	.	.	4cc#i\	.
.	.	.	.	.	.	4cc#i\	.
.	.	.	.	.	.	4b\	.
=321	=321	=321	=321	=321	=321	=321	=321
1.d	spem	1.f	spem	0d	-sti,	1dd	-sti,
.	.	.	.	.	.	1r	.
2d\	de-	2f\	de-	.	.	.	.
=322	=322	=322	=322	=322	=322	=322	=322
1d	-di-	1f	-di-	2r	.	2.a/	spem
.	.	.	.	2.a/	spem	.	.
.	.	.	.	.	.	4b\	.
1A	-sti,	1e	-sti,	.	.	2cc\	.
.	.	.	.	4b\	.	.	.
.	.	.	.	2cc\	.	2a/	de-
=323	=323	=323	=323	=323	=323	=323	=323
1r	.	1r	.	2a/	de-	2.cc\	-di-
.	.	.	.	2.cc\	-di-	.	.
.	.	.	.	.	.	4dd\	.
1A	spem	1c	spem	.	.	2ee\	.
.	.	.	.	4b\	.	.	.
.	.	.	.	4a/	.	[2ff\	.
.	.	.	.	4g/	.	.	.
=324	=324	=324	=324	=324	=324	=324	=324
1B-	de-	1d	de-	1f	.	4ff\]	.
.	.	.	.	.	.	4ee\	.
.	.	.	.	.	.	1dd	.
1B-i	-di-	1d	-di-	1g	.	.	.
.	.	.	.	.	.	4cc\	.
.	.	.	.	.	.	4b\	.
=325	=325	=325	=325	=325	=325	=325	=325
[0Al	-sti.	2e\	-sti,	[0al	-sti.	[0ccl	-sti.
.	.	4A/	de-	.	.	.	.
.	.	4B\	.	.	.	.	.
.	.	4c\	.	.	.	.	.
.	.	4d\	.	.	.	.	.
.	.	4e\	.	.	.	.	.
.	.	4f\	.	.	.	.	.
=326	=326	=326	=326	=326	=326	=326	=326
0A_	.	2e\	.	0a_	.	0cc_	.
.	.	1f	-di-	.	.	.	.
.	.	4e\	.	.	.	.	.
.	.	4d\	.	.	.	.	.
=327	=327	=327	=327	=327	=327	=327	=327
0A]	.	0el	-sti.	0a]	.	0cc]	.
==	==	==	==	==	==	==	==
*-	*-	*-	*-	*-	*-	*-	*-
!!!RDF**kern: l=long note in original notation
!!!RDF**kern: i=editorial accidental
!!!ENC: Will Watson 06/09/2011
!!!END: 2011/06/09/
!!!EED: Jesse Rodin
!!!EEV: 2011/09/20/
!!attribution-level@Jos: 1 (secure, core group [checkmark])
!!!ONB: Translated from MusicXML and edited on 2011/09/20/ by Craig Sapp
!!muse2ps: T^@{OTL}^u^(2) @{OTL2}^C^@{COM}\n@{SCT}^i2I150v90,90,90,120c122z18l2700t130
